X:9
T:GB/7d/9 Planxty Conor
%%VWML:GB-7d-9-0
F:http://www.vwml.org/record/GB/7d/9
T:F.W. J(ekyll)
C:Transcribed by Simon Furey and Lewis Jones
L:1/8
M:6/8
I:linebreak $
K:G
d | B2 G AFD | E2 F G2 A | B>B B BcA | B>B B BcA | Bc d EFG |$ A>BA/G/ FED | EF G ABA | G3 F2 D |
G2 B def | g2 a gfe |$ d>c B c2 d | e>gf/a/ g2 e | dc B{/B} c2 A |{/A} B2 G AFD | EF G ABA |
G3 G2 |]

